;FLAVOR:Repetier
;TIME:2373
;MINX:-29.897
;MINY:-15.302
;MINZ:0.3
;MAXX:29.785
;MAXY:16.09
;MAXZ:47.9
;Generated with Cura_SteamEngine 4.9.0
M82 ;absolute extrusion mode
G21
G90
M82
M107 T0
M140 S60
M104 S220 T0
M190 S60
M109 S220 T0
G28
G92 E0

G92 E0
G92 E0
G1 F3600 E-6.5
;LAYER_COUNT:239
;LAYER:0
M107
G1 F3000 Z0.55
G0 X-0.009 Y-12.124 Z0.55
;TYPE:SKIRT
G1 F3000 Z0.3
G1 F3600 E0
G1 F1500 X0.912 Y-12.107 E0.04596
G1 X1.349 Y-12.083 E0.06779
G1 X2.167 Y-12.009 E0.10877
G1 X2.5 Y-11.968 E0.12551
G1 X3.124 Y-11.875 E0.15698
G1 X3.661 Y-11.781 E0.18418
G1 X3.846 Y-11.744 E0.19359
G1 X4.711 Y-11.547 E0.23785
G1 X5.273 Y-11.396 E0.26689
G1 X6.019 Y-11.164 E0.30586
G1 X6.165 Y-11.116 E0.31353
G1 X6.689 Y-10.93 E0.34127
G1 X7.229 Y-10.719 E0.3702
G1 X7.517 Y-10.597 E0.3858
G1 X8.165 Y-10.305 E0.42126
G1 X8.429 Y-10.176 E0.43592
G1 X9.153 Y-9.8 E0.47662
G1 X9.604 Y-9.545 E0.50247
G1 X10.139 Y-9.22 E0.5337
G1 X10.581 Y-8.934 E0.55996
G1 X11.14 Y-8.548 E0.59385
G1 X11.301 Y-8.431 E0.60378
G1 X11.796 Y-8.054 E0.63483
G1 X12.276 Y-7.66 E0.66581
G1 X12.916 Y-7.097 E0.70833
G1 X13.499 Y-6.532 E0.74884
G1 X13.579 Y-6.45 E0.75455
G1 X14.047 Y-5.956 E0.7885
G1 X14.385 Y-5.572 E0.81402
G1 X14.8 Y-5.08 E0.84614
G1 X15.19 Y-4.58 E0.87777
G1 X15.499 Y-4.158 E0.90387
G1 X15.609 Y-3.999 E0.91351
G1 X16.129 Y-3.21 E0.96066
G1 X16.453 Y-2.671 E0.99203
G1 X16.69 Y-2.194 E1.0186
G1 X16.866 Y-1.745 E1.04266
G1 X17.07 Y-1.003 E1.08106
G1 X17.107 Y-.79 E1.09184
G1 X17.166 Y-.105 E1.12614
G1 X17.166 Y0.108 E1.13677
G1 X17.131 Y0.637 E1.16322
G1 X17.113 Y0.772 E1.17002
G1 X16.981 Y1.386 E1.20135
G1 X16.902 Y1.651 E1.21514
G1 X16.662 Y2.267 E1.24813
G1 X16.333 Y2.88 E1.28283
G1 X16.022 Y3.386 E1.31247
G1 X15.705 Y3.862 E1.341
G1 X15.397 Y4.3 E1.36771
G1 X15.095 Y4.706 E1.39296
G1 X14.718 Y5.18 E1.42317
G1 X14.639 Y5.276 E1.42938
G1 X14.232 Y5.754 E1.4607
G1 X14.013 Y5.996 E1.47698
G1 X13.454 Y6.58 E1.51731
G1 X13.322 Y6.711 E1.52659
G1 X12.886 Y7.126 E1.55662
G1 X12.407 Y7.548 E1.58847
G1 X11.922 Y7.954 E1.62002
G1 X11.773 Y8.072 E1.62951
G1 X11.201 Y8.503 E1.66524
G1 X10.61 Y8.918 E1.70127
G1 X10.068 Y9.269 E1.73348
G1 X9.619 Y9.542 E1.7597
G1 X9.31 Y9.718 E1.77744
G1 X8.674 Y10.058 E1.81342
G1 X8.478 Y10.155 E1.82433
G1 X7.77 Y10.486 E1.86332
G1 X7.181 Y10.737 E1.89526
G1 X6.477 Y11.007 E1.93288
G1 X5.695 Y11.271 E1.97406
G1 X5.554 Y11.313 E1.9814
G1 X5.009 Y11.468 E2.00967
G1 X4.879 Y11.503 E2.01638
G1 X4.22 Y11.666 E2.05025
G1 X3.552 Y11.802 E2.08426
G1 X3.033 Y11.892 E2.11054
G1 X2.918 Y11.91 E2.11635
G1 X2.286 Y11.999 E2.14819
G1 X1.682 Y12.059 E2.17847
G1 X1.138 Y12.099 E2.20569
G1 X0.601 Y12.122 E2.2325
G1 X0.145 Y12.128 E2.25525
G1 X-.422 Y12.125 E2.28354
G1 X-.979 Y12.105 E2.31135
G1 X-1.4 Y12.082 E2.33238
G1 X-22.149 Y10.815 E3.36948
G1 X-23.912 Y10.704 E3.45761
G1 X-24.523 Y10.657 E3.48819
G1 X-24.917 Y10.616 E3.50795
G1 X-25.637 Y10.469 E3.54461
G1 X-26.027 Y10.351 E3.56494
G1 X-26.722 Y10.067 E3.6024
G1 X-26.942 Y9.952 E3.61478
G1 X-27.437 Y9.646 E3.64382
G1 X-27.626 Y9.509 E3.65546
G1 X-28.127 Y9.077 E3.68847
G1 X-28.328 Y8.873 E3.70275
G1 X-28.755 Y8.361 E3.73601
G1 X-28.914 Y8.134 E3.74984
G1 X-29.185 Y7.688 E3.77588
G1 X-29.271 Y7.523 E3.78516
G1 X-29.543 Y6.862 E3.82082
G1 X-29.74 Y6.164 E3.85701
G1 X-29.792 Y5.911 E3.86989
G1 X-29.873 Y5.181 E3.90653
G1 X-29.897 Y3.874 E3.97175
G1 X-29.896 Y-4.296 E4.37936
G1 X-29.886 Y-4.983 E4.41363
G1 X-29.793 Y-5.907 E4.45997
G1 X-29.726 Y-6.241 E4.47696
G1 X-29.573 Y-6.794 E4.50559
G1 X-29.514 Y-6.96 E4.51438
G1 X-29.286 Y-7.48 E4.5427
G1 X-29.129 Y-7.779 E4.55955
G1 X-28.779 Y-8.331 E4.59216
G1 X-28.652 Y-8.499 E4.60267
G1 X-28.154 Y-9.044 E4.6395
G1 X-27.863 Y-9.309 E4.65913
G1 X-27.253 Y-9.767 E4.69719
G1 X-27.053 Y-9.889 E4.70888
G1 X-26.507 Y-10.167 E4.73945
G1 X-26.238 Y-10.279 E4.75398
G1 X-25.69 Y-10.462 E4.78281
G1 X-25.142 Y-10.585 E4.81083
G1 X-24.719 Y-10.639 E4.8321
G1 X-23.657 Y-10.721 E4.88524
G1 X-1.283 Y-12.089 E6.00357
G1 X-.741 Y-12.114 E6.03064
G1 X-.151 Y-12.124 E6.06008
G1 X-0.009 Y-12.124 E6.06716
G0 F3000 X-0.017 Y-11.724
G1 F1500 X0.904 Y-11.707 E6.11312
G1 X1.313 Y-11.684 E6.13356
G1 X2.258 Y-11.597 E6.1809
G1 X2.441 Y-11.573 E6.19011
G1 X3.163 Y-11.464 E6.22654
G1 X3.758 Y-11.354 E6.25673
G1 X4.612 Y-11.159 E6.30043
G1 X5.164 Y-11.011 E6.32894
G1 X5.256 Y-10.984 E6.33373
G1 X5.9 Y-10.783 E6.36739
G1 X6.031 Y-10.739 E6.37428
G1 X6.555 Y-10.553 E6.40202
G1 X7.074 Y-10.35 E6.42982
G1 X7.353 Y-10.232 E6.44494
G1 X7.992 Y-9.944 E6.4799
G1 X8.244 Y-9.821 E6.49389
G1 X8.968 Y-9.445 E6.5346
G1 X9.405 Y-9.198 E6.55964
G1 X9.931 Y-8.878 E6.59036
G1 X10.363 Y-8.599 E6.61601
G1 X10.913 Y-8.218 E6.64939
G1 X11.058 Y-8.113 E6.65832
G1 X11.553 Y-7.736 E6.68937
G1 X12.02 Y-7.352 E6.71953
G1 X12.582 Y-6.859 E6.75683
G1 X13.216 Y-6.249 E6.80072
G1 X13.756 Y-5.681 E6.83982
G1 X14.08 Y-5.313 E6.86428
G1 X14.42 Y-4.912 E6.89051
G1 X14.768 Y-4.476 E6.91834
G1 X15.176 Y-3.922 E6.95267
G1 X15.276 Y-3.779 E6.96138
G1 X15.74 Y-3.076 E7.0034
G1 X16.107 Y-2.47 E7.03874
G1 X16.387 Y-1.877 E7.07146
G1 X16.492 Y-1.602 E7.08615
G1 X16.676 Y-.934 E7.12072
G1 X16.713 Y-.721 E7.1315
G1 X16.766 Y-.105 E7.16235
G1 X16.734 Y0.584 E7.19676
G1 X16.716 Y0.719 E7.20355
G1 X16.598 Y1.271 E7.23172
G1 X16.519 Y1.536 E7.24551
G1 X16.302 Y2.091 E7.27524
G1 X15.992 Y2.67 E7.30801
G1 X15.681 Y3.176 E7.33764
G1 X15.373 Y3.639 E7.36538
G1 X15.075 Y4.063 E7.39124
G1 X14.781 Y4.457 E7.41576
G1 X14.333 Y5.018 E7.45158
G1 X13.933 Y5.488 E7.48237
G1 X13.724 Y5.719 E7.49791
G1 X13.165 Y6.303 E7.53825
G1 X13.046 Y6.422 E7.54664
G1 X12.61 Y6.837 E7.57667
G1 X12.144 Y7.247 E7.60764
G1 X11.666 Y7.647 E7.63873
G1 X11.532 Y7.753 E7.64726
G1 X10.968 Y8.178 E7.68249
G1 X10.385 Y8.587 E7.71802
G1 X10.309 Y8.638 E7.72259
G1 X9.851 Y8.933 E7.74977
G1 X9.412 Y9.2 E7.7754
G1 X9.121 Y9.365 E7.79209
G1 X8.493 Y9.701 E7.82762
G1 X8.308 Y9.793 E7.83793
G1 X7.699 Y10.079 E7.8715
G1 X7.207 Y10.295 E7.89831
G1 X6.435 Y10.596 E7.93965
G1 X5.571 Y10.89 E7.98518
G1 X5.445 Y10.929 E7.99176
G1 X4.9 Y11.084 E8.02003
G1 X4.206 Y11.258 E8.05572
G1 X3.475 Y11.41 E8.09297
G1 X2.966 Y11.498 E8.11874
G1 X2.23 Y11.603 E8.15583
G1 X1.655 Y11.66 E8.18466
G1 X1.106 Y11.701 E8.21213
G1 X0.588 Y11.722 E8.23799
G1 X0.147 Y11.728 E8.26
G1 X-.42 Y11.725 E8.28828
G1 X-.962 Y11.705 E8.31534
G1 X-1.376 Y11.682 E8.33603
G1 X-22.119 Y10.416 E9.37283
G1 X-23.881 Y10.305 E9.46091
G1 X-24.492 Y10.258 E9.49148
G1 X-24.874 Y10.218 E9.51064
G1 X-25.522 Y10.086 E9.54364
G1 X-25.912 Y9.968 E9.56396
G1 X-26.537 Y9.712 E9.59766
G1 X-26.757 Y9.597 E9.61004
G1 X-27.202 Y9.322 E9.63614
G1 X-27.391 Y9.185 E9.64779
G1 X-27.842 Y8.797 E9.67747
G1 X-28.043 Y8.593 E9.69176
G1 X-28.428 Y8.131 E9.72176
G1 X-28.83 Y7.503 E9.75896
G1 X-28.916 Y7.338 E9.76824
G1 X-29.161 Y6.743 E9.80035
G1 X-29.348 Y6.084 E9.83452
G1 X-29.4 Y5.831 E9.84741
G1 X-29.473 Y5.173 E9.88044
G1 X-29.497 Y3.874 E9.94526
G1 X-29.496 Y-4.29 E10.35256
G1 X-29.486 Y-4.977 E10.38684
G1 X-29.401 Y-5.828 E10.42951
G1 X-29.334 Y-6.162 E10.4465
G1 X-29.196 Y-6.66 E10.47228
G1 X-29.137 Y-6.826 E10.48107
G1 X-28.932 Y-7.294 E10.50656
G1 X-28.775 Y-7.593 E10.52341
G1 X-28.46 Y-8.09 E10.55277
G1 X-28.333 Y-8.258 E10.56327
G1 X-27.885 Y-8.749 E10.59644
G1 X-27.594 Y-9.014 E10.61607
G1 X-27.045 Y-9.425 E10.65029
G1 X-26.845 Y-9.547 E10.66197
G1 X-26.354 Y-9.797 E10.68946
G1 X-26.085 Y-9.909 E10.704
G1 X-25.591 Y-10.074 E10.72998
G1 X-25.078 Y-10.19 E10.75622
G1 X-24.689 Y-10.24 E10.77579
G1 X-23.633 Y-10.321 E10.82863
G1 X-1.262 Y-11.689 E11.94681
G1 X-.734 Y-11.714 E11.97318
G1 X-.144 Y-11.724 E12.00262
G1 X-0.017 Y-11.724 E12.00895
G0 F3000 X-.137 Y-11.325
G1 F1500 X0.897 Y-11.307 E12.06055
G1 X1.277 Y-11.286 E12.07954
G1 X2.095 Y-11.212 E12.12051
G1 X2.382 Y-11.177 E12.13494
G1 X3.093 Y-11.07 E12.17081
G1 X3.67 Y-10.964 E12.20008
G1 X4.433 Y-10.791 E12.23911
G1 X5.055 Y-10.626 E12.27121
G1 X5.78 Y-10.401 E12.30909
G1 X5.897 Y-10.362 E12.31524
G1 X6.421 Y-10.176 E12.34298
G1 X6.919 Y-9.981 E12.36966
G1 X7.189 Y-9.867 E12.38428
G1 X7.818 Y-9.584 E12.4187
G1 X8.06 Y-9.466 E12.43213
G1 X8.784 Y-9.09 E12.47283
G1 X9.28 Y-8.807 E12.50132
G1 X9.799 Y-8.489 E12.53169
G1 X10.246 Y-8.195 E12.55838
G1 X10.687 Y-7.888 E12.58519
G1 X10.816 Y-7.795 E12.59312
G1 X11.311 Y-7.418 E12.62416
G1 X11.765 Y-7.044 E12.65351
G1 X12.373 Y-6.509 E12.69391
G1 X12.934 Y-5.965 E12.7329
G1 X12.998 Y-5.9 E12.73745
G1 X13.466 Y-5.406 E12.7714
G1 X13.775 Y-5.054 E12.79477
G1 X14.175 Y-4.581 E12.82567
G1 X14.55 Y-4.1 E12.8561
G1 X14.853 Y-3.686 E12.8817
G1 X14.942 Y-3.559 E12.88943
G1 X15.45 Y-2.787 E12.93554
G1 X15.761 Y-2.269 E12.96568
G1 X16.013 Y-1.734 E12.99519
G1 X16.118 Y-1.459 E13.00987
G1 X16.282 Y-.866 E13.04057
G1 X16.319 Y-.653 E13.05135
G1 X16.366 Y-.105 E13.07879
G1 X16.338 Y0.531 E13.11055
G1 X16.32 Y0.666 E13.11735
G1 X16.215 Y1.157 E13.1424
G1 X16.136 Y1.422 E13.1562
G1 X15.943 Y1.915 E13.18261
G1 X15.651 Y2.461 E13.2135
G1 X15.34 Y2.967 E13.24313
G1 X15.041 Y3.416 E13.27004
G1 X14.753 Y3.826 E13.29504
G1 X14.468 Y4.208 E13.31882
G1 X14.028 Y4.759 E13.354
G1 X13.635 Y5.221 E13.38426
G1 X13.435 Y5.443 E13.39917
G1 X12.876 Y6.027 E13.4395
G1 X12.77 Y6.132 E13.44694
G1 X12.334 Y6.547 E13.47697
G1 X11.882 Y6.945 E13.50702
G1 X11.41 Y7.339 E13.53769
G1 X11.291 Y7.434 E13.54529
G1 X10.799 Y7.806 E13.57606
G1 X10.354 Y8.125 E13.60338
G1 X10.093 Y8.301 E13.61908
G1 X9.56 Y8.643 E13.65068
G1 X9.116 Y8.91 E13.67653
G1 X8.932 Y9.013 E13.68705
G1 X8.313 Y9.344 E13.72207
G1 X8.138 Y9.43 E13.73179
G1 X7.45 Y9.753 E13.76971
G1 X6.898 Y9.989 E13.79966
G1 X6.209 Y10.253 E13.83648
G1 X5.448 Y10.51 E13.87655
G1 X5.335 Y10.544 E13.88244
G1 X4.686 Y10.727 E13.91608
G1 X4.044 Y10.885 E13.94906
G1 X3.397 Y11.017 E13.98201
G1 X2.806 Y11.118 E14.01192
G1 X2.174 Y11.207 E14.04376
G1 X1.628 Y11.261 E14.07113
G1 X1.074 Y11.302 E14.09885
G1 X0.574 Y11.322 E14.12381
G1 X0.149 Y11.328 E14.14502
G1 X-.418 Y11.325 E14.17331
G1 X-.946 Y11.305 E14.19967
G1 X-1.351 Y11.283 E14.2199
G1 X-22.094 Y10.017 E15.2567
G1 X-23.85 Y9.907 E15.34448
G1 X-24.461 Y9.86 E15.37505
G1 X-24.83 Y9.821 E15.39357
G1 X-25.406 Y9.703 E15.4229
G1 X-25.796 Y9.585 E15.44323
G1 X-26.351 Y9.358 E15.47314
G1 X-26.967 Y8.998 E15.50874
G1 X-27.156 Y8.861 E15.52038
G1 X-27.557 Y8.516 E15.54678
G1 X-27.758 Y8.312 E15.56106
G1 X-28.1 Y7.902 E15.5877
G1 X-28.476 Y7.318 E15.62235
G1 X-28.562 Y7.153 E15.63164
G1 X-28.78 Y6.625 E15.66013
G1 X-28.956 Y6.003 E15.69238
G1 X-29.008 Y5.75 E15.70527
G1 X-29.073 Y5.166 E15.73459
G1 X-29.097 Y3.874 E15.79906
G1 X-29.096 Y-4.285 E16.20611
G1 X-29.086 Y-4.972 E16.24039
G1 X-29.008 Y-5.749 E16.27935
G1 X-28.819 Y-6.526 E16.31924
G1 X-28.578 Y-7.108 E16.35067
G1 X-28.421 Y-7.407 E16.36752
G1 X-28.141 Y-7.849 E16.39362
G1 X-28.014 Y-8.017 E16.40413
G1 X-27.616 Y-8.453 E16.43358
G1 X-27.325 Y-8.718 E16.45322
G1 X-26.836 Y-9.084 E16.48369
G1 X-26.2 Y-9.428 E16.51976
G1 X-25.492 Y-9.687 E16.55738
G1 X-24.922 Y-9.81 E16.58647
G1 X-24.658 Y-9.842 E16.59974
G1 X-23.608 Y-9.922 E16.65227
G1 X-1.241 Y-11.29 E17.77025
G1 X-.727 Y-11.315 E17.79592
G1 X-.137 Y-11.325 E17.82536
G1 F3600 E11.32536
G1 F3000 Z0.55
;MESH:3DBenchy.stl
G0 X-6.083 Y-.83 Z0.55
;TYPE:WALL-INNER
G1 F3000 Z0.3
G1 F3600 E17.82536
G1 F900 X-5.995 Y-.392 E17.84765
G1 X-5.984 Y0.076 E17.87101
G1 X-6.04 Y0.552 E17.89492
G1 X-6.171 Y0.924 E17.9146
G1 X-6.324 Y1.118 E17.92692
G1 X-6.499 Y1.216 E17.93693
G1 X-7.059 Y1.268 E17.96499
G1 X-7.06 Y1.269 E17.96506
G1 X-7.278 Y1.287 E17.97597
G1 X-7.278 Y1.069 E17.98284
G1 X-7.277 Y1.067 E17.98296
G1 X-7.275 Y0.869 E17.99283
G1 X-7.273 Y-.889 E18.08054
G1 X-7.275 Y-1.126 E18.09237
G1 X-7.275 Y-1.127 E18.09242
G1 X-7.275 Y-1.339 E18.10299
G1 X-7.063 Y-1.326 E18.10973
G1 X-6.499 Y-1.291 E18.13792
G1 X-6.347 Y-1.238 E18.14595
G1 X-6.234 Y-1.138 E18.15348
G1 X-6.083 Y-.83 E18.17059
G0 F3000 X-5.701 Y-.959
;TYPE:WALL-OUTER
G1 F900 X-5.596 Y-.435 E18.19725
G1 X-5.583 Y0.092 E18.22355
G1 X-5.648 Y0.643 E18.25123
G1 X-5.816 Y1.119 E18.27642
G1 X-6.06 Y1.429 E18.2961
G1 X-6.347 Y1.589 E18.31249
G1 X-6.42 Y1.609 E18.31627
G1 X-6.928 Y1.676 E18.34183
G1 X-7.384 Y1.691 E18.3646
G1 X-7.456 Y1.693 E18.36819
G1 X-7.631 Y1.667 E18.37702
G1 X-7.684 Y1.561 E18.38293
G1 X-7.683 Y1.489 E18.38652
G1 X-7.672 Y0.97 E18.41242
G1 X-7.675 Y0.869 E18.41746
G1 X-7.673 Y-.888 E18.50512
G1 X-7.677 Y-1.661 E18.54368
G1 X-7.642 Y-1.733 E18.54768
G1 X-6.936 Y-1.744 E18.5829
G1 X-6.408 Y-1.683 E18.60942
G1 X-6.14 Y-1.59 E18.62357
G1 X-5.91 Y-1.385 E18.63895
G1 X-5.701 Y-.959 E18.66262
G0 F3000 X-5.662 Y-.763
G0 X-6.093 Y-.678
G0 X-6.454 Y-.698
;TYPE:SKIN
G1 F900 X-6.385 Y-.352 E18.68022
G1 X-6.374 Y0.055 E18.70053
G1 X-6.423 Y0.466 E18.72118
G1 X-6.581 Y0.814 E18.74025
G1 X-6.885 Y0.86 E18.75559
G1 X-6.883 Y-.924 E18.84459
G1 X-6.55 Y-.896 E18.86127
G1 X-6.454 Y-.698 E18.87224
G0 F3000 X-6.723 Y-.5
G1 F1500 X-6.543 Y-.321 E18.88491
G0 F3000 X-6.723 Y0.064
G1 F1500 X-6.555 Y0.232 E18.89676
G0 F3000 X-6.208 Y0.274
G1 F3600 E12.39676
G0 F3000 X-6.121 Y0.284
G0 X-6.552 Y1.049
G0 X-7.456 Y0.869
G0 X-9.175 Y0.869
G0 X-9.975 Y1.552
G0 X-10.465 Y2.629
G0 X-11.303 Y3.235
G0 X-12.426 Y3.394
G0 X-13.459 Y3.168
G0 X-14.027 Y2.636
G0 X-14.1 Y1.883
G0 X-13.409 Y0.899
G0 X-12.194 Y1.328
G0 X-13.9 Y-.231
G0 X-13.651 Y-1.051
G0 X-14.374 Y-1.645
G0 X-15.984 Y-1.213
G0 X-16.418 Y2.376
G0 X-16.747 Y3.083
G0 X-17.458 Y3.234
G0 X-17.988 Y2.894
G0 X-18.478 Y0.092
G0 X-18.477 Y-1.233
G0 X-20.014 Y-1.539
G0 X-21.798 Y-.997
G0 X-22.414 Y-1.343
G0 X-23.05 Y-.902
G0 X-23.165 Y-0.005
G0 X-23.024 Y0.901
G0 X-22.369 Y1.273
G0 X-21.465 Y0.959
;TYPE:WALL-INNER
G1 F3600 E18.89676
G1 F1500 X-21.874 Y1.156 E18.91941
G1 X-22.134 Y1.407 E18.93744
G1 X-22.306 Y1.452 E18.94631
G1 X-22.587 Y1.446 E18.96033
G1 X-22.833 Y1.363 E18.97329
G1 X-23.038 Y1.206 E18.98617
G1 X-23.184 Y0.969 E19.00006
G1 X-23.294 Y0.568 E19.0208
G1 X-23.336 Y-0.005 E19.04946
G1 X-23.317 Y-.466 E19.07248
G1 X-23.214 Y-.958 E19.09756
G1 X-23.085 Y-1.217 E19.112
G1 X-22.921 Y-1.381 E19.12357
G1 X-22.596 Y-1.513 E19.14107
G1 X-22.379 Y-1.514 E19.1519
G1 X-22.198 Y-1.437 E19.16171
G1 X-21.727 Y-1.154 E19.18912
G1 X-21.229 Y-.998 E19.21516
G1 X-20.824 Y-1.034 E19.23544
G1 X-20.413 Y-1.277 E19.25926
G1 X-20.211 Y-1.579 E19.27739
G1 X-20.125 Y-1.708 E19.28513
G1 X-20.102 Y-1.853 E19.29245
G1 X-20.084 Y-1.959 E19.29781
G1 X-20.049 Y-1.845 E19.29863
G1 X-20.017 Y-1.811
G1 X-19.91 Y-1.698 E19.30449
G1 X-19.728 Y-1.506 E19.31769
G1 X-19.323 Y-1.363 E19.33912
G1 X-18.9 Y-1.37 E19.36023
G1 X-18.552 Y-1.411 E19.37771
G1 X-18.384 Y-1.43 E19.38614
G1 X-18.292 Y-1.414 E19.3908
G1 X-18.283 Y-1.377 E19.3927
G1 X-18.292 Y-1.208 E19.40115
G1 X-18.317 Y-.793 E19.42189
G1 X-18.308 Y0.093 E19.46609
G1 X-18.313 Y1.333 E19.52796
G1 X-18.301 Y1.964 E19.55944
G1 X-18.345 Y2.581 E19.5903
G1 X-18.224 Y3.023 E19.61317
G1 X-17.964 Y3.311 E19.63252
G1 X-17.51 Y3.494 E19.65695
G1 X-17.036 Y3.499 E19.68059
G1 X-16.581 Y3.296 E19.70545
G1 X-16.29 Y2.928 E19.72886
G1 X-16.156 Y2.406 E19.75574
G1 X-16.172 Y1.669 E19.79252
G1 X-16.173 Y1.422 E19.80485
G1 X-16.169 Y0.806 E19.83558
G1 X-16.17 Y-.6 E19.90572
G1 X-16.167 Y-1.107 E19.93102
G1 X-16.167 Y-1.215 E19.93641
G1 X-16.162 Y-1.4 E19.94564
G1 X-16.054 Y-1.398 E19.95
G1 X-15.729 Y-1.39 E19.96622
G1 X-15.15 Y-1.426 E19.99516
G1 X-14.683 Y-1.596 E20.01995
G1 X-14.415 Y-1.869 E20.03904
G1 X-14.396 Y-1.889 E20.04042
G1 X-14.353 Y-2.004 E20.04654
G1 X-14.315 Y-1.933
G1 X-14.135 Y-1.596 E20.06175
G1 X-13.77 Y-1.283 E20.08574
G1 X-13.619 Y-1.235 E20.09365
G1 X-13.404 Y-1.167 E20.1049
G1 X-13.302 Y-1.186 E20.11007
G1 X-13.389 Y-1.13 E20.11039
G1 X-13.503 Y-.936 E20.11764
G1 X-13.648 Y-.691 E20.13185
G1 X-13.725 Y-.234 E20.15497
G1 X-13.647 Y0.156 E20.17481
G1 X-13.426 Y0.474 E20.19413
G1 X-12.992 Y0.689 E20.21829
G1 X-12.433 Y0.799 E20.24672
G1 X-12.237 Y0.898 E20.25767
G1 X-12.058 Y1.091 E20.27081
G1 X-12.05 Y1.099 E20.27137
G1 X-11.984 Y1.267 E20.28038
G1 X-12.025 Y1.409 E20.28775
G1 X-12.044 Y1.479 E20.29137
G1 X-12.054 Y1.484 E20.29193
G1 X-12.179 Y1.551 E20.299
G1 X-12.335 Y1.46 E20.30801
G1 X-12.396 Y1.42 E20.31165
G1 X-12.771 Y1.175 E20.334
